X:276
T:Pat And Al's
C:Liz Carrol
S:Olivia Hivon
R:jig
M:6/8
L:1/8
K:Amaj
A,A,A, A,2B,| C2E A2c | BAF F2B | A2Bc2e |
A,A,A, A,2B,| C2E A2c | BAB c2B |  AFF FEF :|
eAA A2B | c2e afe | f2f- f2e | c2e f2a |
eAA A2B | c2e afe | eff f2a | cBB BAc |
eAA A2B | c2e afe | f2f- f2e | c2e f2b |
aee f2c | eBB Bcc | BAF A2A | CB,B, B,2C ||
